stories/assets/img/rewards_donate.svg

<?xml version="1.0" encoding="UTF-8"?>
<svg width="92px" height="69px" viewBox="0 0 92 69" version="1.1" xmlns="http://www.w3.org/2000/svg" xmlns:xlink="http://www.w3.org/1999/xlink">
    <!-- Generator: Sketch 50.2 (55047) - http://www.bohemiancoding.com/sketch -->
    <title>img</title>
    <desc>Created with Sketch.</desc>
    <defs>
        <polygon id="path-1" points="0 0 91.9665 0 91.9665 25.7960388 0 25.7960388"></polygon>
    </defs>
    <g id="settings" stroke="none" stroke-width="1" fill="none" fill-rule="evenodd">
        <g id="4-donation" transform="translate(-197.000000, -291.000000)">
            <g id="1:-initial-state" transform="translate(98.000000, 116.000000)">
                <g id="blankslate-graphics" transform="translate(99.000000, 171.000000)">
                    <g id="img" transform="translate(0.000000, 4.000000)">
                        <path d="M54.3683026,35.9836678 C51.5642168,35.6428337 48.2299414,36.2087186 44.4586689,37.663529 C41.7933643,38.6922967 39.6554787,39.8807052 38.698115,40.4465901 C37.366974,38.3527157 33.0466215,29.3404095 31.4636089,25.6761919 C30.6697098,23.83669 28.0318592,20.1499172 25.3685696,21.1776825 C24.7527437,21.4157652 24.2822477,21.8766431 24.0107302,22.513201 C23.1145713,24.6070754 24.5577952,28.0961143 24.6197556,28.2439762 C26.7047481,33.2111325 32.4602646,46.6600465 33.0969958,48.1519477 C33.1942182,48.3790034 33.3251914,48.6619459 33.4765662,48.9910012 C33.8367425,49.7711605 34.3316701,50.8422819 34.6563325,51.7996248 C35.0862772,53.0674777 34.9948478,53.487255 34.9681495,53.5666995 C34.8815057,53.6303552 34.7920913,53.6792248 34.694617,53.7173181 C32.8972617,54.4105146 29.3020474,51.0447775 27.9374074,49.4030095 C26.6908952,47.9033393 24.058082,47.1144085 22.413109,47.7487109 C21.7547168,48.0023316 21.2874952,48.4779957 21.097584,49.0859836 C20.825059,49.9631303 21.1240305,51.0447775 21.9859349,52.299849 C21.9957579,52.3136328 22.0126333,52.3409496 22.0370648,52.3790429 C23.2828215,54.3263085 26.7586486,59.2907081 32.1217492,63.322826 C35.5595438,65.9074013 39.1517357,67.6323729 42.7988355,68.4488712 C47.3237076,69.4618503 51.9468096,69.0771588 56.5396871,67.3053225 C61.4657906,65.4041698 64.2718914,61.7153921 64.8799092,56.3409891 C65.4801191,51.0457799 63.692335,45.4403114 62.5737735,42.5700369 C61.0554918,38.6757563 58.294728,36.4593319 54.3683026,35.9836678 Z" id="Fill-1" fill="#C9CDF5"></path>
                        <path d="M31.5003804,9 C29.5259954,9 29,11.1997892 29,12.5001153 C29,13.7995192 29.5259954,16 31.5003804,16 C33.4740046,16 34,13.7995192 34,12.5001153 C34,11.1997892 33.4740046,9 31.5003804,9 Z" id="Fill-3" fill="#8B9FE1"></path>
                        <polygon id="Fill-4" fill="#8B9FE1" points="50 14 52 14 50.9854658 11"></polygon>
                        <g id="Group-8">
                            <mask id="mask-2" fill="white">
                                <use xlink:href="#path-1"></use>
                            </mask>
                            <g id="Clip-6"></g>
                            <path d="M21.09175,9.47561165 C21.0155,9.47561165 20.9405,9.47939806 20.86825,9.48848544 L20.04775,9.5801165 L20.04775,16.7583883 L21.28025,16.7583883 C22.38075,16.7583883 23.84375,16.4085243 23.84375,13.3902524 C23.84375,10.7011456 22.417,9.47561165 21.09175,9.47561165 Z" id="Fill-5" fill="#8B9FE1" mask="url(#mask-2)"></path>
                            <path d="M79.207,0.108038835 L12.7745,0.108038835 C5.71875,0.108038835 0,5.88231068 0,13.0065631 C0,20.1298058 5.71875,25.9040777 12.7745,25.9040777 L21.97375,25.9040777 C21.872,24.7878447 21.9405,23.6006796 22.38,22.5594175 C22.8585,21.4234951 23.7345,20.5576699 24.84375,20.1237476 C25.379,19.9137282 25.9385,19.8072039 26.50575,19.8072039 C30.13475,19.8072039 32.753,24.0896311 33.455,25.7402524 C33.4775,25.7925049 33.502,25.8487961 33.5255,25.9040777 L79.208,25.9040777 C86.26275,25.9040777 91.9815,20.1298058 91.9815,13.0065631 C91.9815,5.88231068 86.26275,0.108038835 79.207,0.108038835 Z M21.3135,18.5165437 C21.00775,18.5165437 20.705,18.4928155 20.413,18.4693398 C20.002,18.4367767 19.4785,18.4110291 19.15725,18.4486408 L17.7265,18.6162524 C17.70025,18.6190291 17.67375,18.6210485 17.6475,18.6210485 C17.3155,18.6210485 17.0255,18.3774563 16.97175,18.0394563 L16.912,17.6615728 C16.88175,17.4732621 16.93075,17.281165 17.046,17.1302136 C17.16125,16.9792621 17.333,16.882835 17.5215,16.8639029 L18.208,16.7970097 L18.208,9.54452427 L17.46,9.38196117 C17.13375,9.3107767 16.90525,9.01316505 16.92,8.67693204 L16.93075,8.43636893 C16.9385,8.23796117 17.03025,8.05368932 17.18175,7.92949515 C17.333,7.80530097 17.52925,7.75001942 17.72275,7.78258252 L17.95025,7.82095146 C18.2695,7.8752233 18.5995,7.93151456 18.914,7.93151456 C19.1905,7.93151456 19.46375,7.8901165 19.77925,7.84266019 C20.123,7.79040777 20.51075,7.73234951 20.9355,7.73234951 C23.8955,7.73234951 25.7335,9.82370874 25.7335,13.1910874 C25.7335,17.8253981 22.96375,18.5165437 21.3135,18.5165437 Z M31.37,18.7157087 C28.36125,18.7157087 27.0155,15.9074563 27.0155,13.1249515 C27.0155,10.3411845 28.36125,7.53293204 31.37,7.53293204 C34.378,7.53293204 35.72375,10.3411845 35.72375,13.1249515 C35.72375,15.9074563 34.378,18.7157087 31.37,18.7157087 Z M45.4405,9.49126214 L45.08975,9.49126214 L45.08975,17.8253981 C45.08975,18.2080777 44.78425,18.5165437 44.40525,18.5165437 L43.78525,18.5165437 C43.541,18.5165437 43.3155,18.385534 43.1925,18.1714757 L39.372,11.500835 L39.372,16.7583883 L40.19925,16.7583883 C40.57725,16.7583883 40.88375,17.0681165 40.88375,17.4497864 L40.88375,17.8253981 C40.88375,18.2080777 40.57725,18.5165437 40.19925,18.5165437 L37,18.5165437 C36.622,18.5165437 36.3155,18.2080777 36.3155,17.8253981 L36.3155,17.4497864 C36.3155,17.0681165 36.622,16.7583883 37,16.7583883 L37.53225,16.7583883 L37.53225,9.49126214 L37,9.49126214 C36.622,9.49126214 36.3155,9.18178641 36.3155,8.8001165 L36.3155,8.42349515 C36.3155,8.04182524 36.622,7.73234951 37,7.73234951 L38.917,7.73234951 C39.163,7.73234951 39.38975,7.86537864 39.51175,8.08120388 L43.25,14.6897476 L43.25,9.49126214 L42.38975,9.49126214 C42.01175,9.49126214 41.705,9.18178641 41.705,8.8001165 L41.705,8.42450485 C41.705,8.04182524 42.01175,7.7331068 42.38975,7.7331068 L45.4405,7.7331068 C45.81825,7.7331068 46.125,8.04182524 46.125,8.42450485 L46.125,8.8001165 C46.125,9.18178641 45.81825,9.49126214 45.4405,9.49126214 Z M56.11625,17.8253981 C56.11625,18.2080777 55.8095,18.5165437 55.43175,18.5165437 L52.66025,18.5165437 C52.28225,18.5165437 51.9755,18.2080777 51.9755,17.8253981 L51.9755,17.4497864 C51.9755,17.0681165 52.28225,16.7583883 52.66025,16.7583883 L53.208,16.7583883 L52.7245,15.4470291 L49.38775,15.4470291 L48.914,16.7583883 L49.4835,16.7583883 C49.86125,16.7583883 50.168,17.0681165 50.168,17.4497864 L50.168,17.8253981 C50.168,18.2080777 49.86125,18.5165437 49.4835,18.5165437 L46.745,18.5165437 C46.36625,18.5165437 46.0595,18.2080777 46.0595,17.8253981 L46.0595,17.4497864 C46.0595,17.0681165 46.36625,16.7583883 46.745,16.7583883 L47.00875,16.7583883 L50.38675,7.74320388 C50.48625,7.4758835 50.73925,7.29842718 51.0225,7.29640777 L51.02625,7.29640777 C51.3085,7.29640777 51.5615,7.47083495 51.664,7.73613592 L55.164,16.7583883 L55.43175,16.7583883 C55.8095,16.7583883 56.11625,17.0681165 56.11625,17.4497864 L56.11625,17.8253981 Z M65.44925,11.3718447 C65.44925,11.7532621 65.1435,12.0629903 64.76475,12.0629903 L64.294,12.0629903 C63.916,12.0629903 63.6095,11.7532621 63.6095,11.3718447 L63.6095,10.3866214 C63.6095,9.78130097 63.5575,9.61848544 63.52725,9.57708738 C63.5195,9.57229126 63.3985,9.49126214 62.788,9.49126214 L61.86725,9.49126214 L61.86725,16.7573786 L63.335,16.7573786 C63.71375,16.7573786 64.0205,17.0671068 64.0205,17.4497864 L64.0205,17.8253981 C64.0205,18.207068 63.71375,18.5165437 63.335,18.5165437 L58.5595,18.5165437 C58.18075,18.5165437 57.874,18.207068 57.874,17.8253981 L57.874,17.4497864 C57.874,17.0671068 58.18075,16.7573786 58.5595,16.7573786 L60.02725,16.7573786 L60.02725,9.49126214 L59.1065,9.49126214 C58.496,9.49126214 58.375,9.57128155 58.36325,9.58112621 C58.337,9.61848544 58.28525,9.78029126 58.28525,10.3866214 L58.28525,11.3718447 C58.28525,11.7532621 57.9785,12.0629903 57.6005,12.0629903 L57.13,12.0629903 C56.751,12.0629903 56.44425,11.7532621 56.44425,11.3718447 L56.44425,8.42349515 C56.44425,8.04182524 56.751,7.73234951 57.13,7.73234951 L64.76475,7.73234951 C65.1435,7.73234951 65.44925,8.04182524 65.44925,8.42349515 L65.44925,11.3718447 Z M75.078,17.8253981 C75.078,18.2080777 74.7725,18.5165437 74.3935,18.5165437 L66.82425,18.5165437 C66.44625,18.5165437 66.13975,18.2080777 66.13975,17.8253981 L66.13975,17.4497864 C66.13975,17.0681165 66.44625,16.7583883 66.82425,16.7583883 L67.78225,16.7583883 L67.78225,9.49126214 L66.82425,9.49126214 C66.44625,9.49126214 66.13975,9.18178641 66.13975,8.8001165 L66.13975,8.42349515 C66.13975,8.04182524 66.44625,7.73234951 66.82425,7.73234951 L74.082,7.73234951 C74.46,7.73234951 74.7665,8.04182524 74.7665,8.42349515 L74.7665,10.7574369 C74.7665,11.1401165 74.46,11.4485825 74.082,11.4485825 L73.61025,11.4485825 C73.2325,11.4485825 72.92575,11.1401165 72.92575,10.7574369 L72.92575,10.602699 C72.92575,10.01 72.8935,9.66871845 72.83,9.58895146 C72.8125,9.57405825 72.67975,9.49126214 71.98925,9.49126214 L69.623,9.49126214 L69.623,11.7976893 L71.0645,11.7976893 C71.123,11.4763495 71.40225,11.233767 71.73725,11.233767 L72.208,11.233767 C72.587,11.233767 72.8925,11.5432427 72.8925,11.9249126 L72.8925,13.5952233 C72.8925,13.9768932 72.587,14.2863689 72.208,14.2863689 L71.73725,14.2863689 C71.3595,14.2863689 71.05275,13.9768932 71.05275,13.5952233 L71.05275,13.5568544 L69.623,13.5568544 L69.623,16.7583883 L72.28525,16.7583883 C73.23825,16.7583883 73.23825,16.7583883 73.23825,15.1827379 L73.23825,15.1433592 C73.23825,14.7616893 73.545,14.4522136 73.92275,14.4522136 L74.3935,14.4522136 C74.7725,14.4522136 75.078,14.7616893 75.078,15.1433592 L75.078,17.8253981 Z" id="Fill-7" fill="#8B9FE1" mask="url(#mask-2)"></path>
                        </g>
                    </g>
                </g>
            </g>
        </g>
    </g>
</svg>

<svg width='92' height='69' xmlns='http://www.w3.org/2000/svg' xmlns:xlink='http://www.w3.org/1999/xlink'>
  <defs>
    <path id='a' d='M0 0h91.966v25.796H0z'/>
  </defs>
  <g fill='none' fill-rule='evenodd'>
    <path d='M54.368 35.984c-2.804-.341-6.138.225-9.91 1.68a40.153 40.153 0 0 0-5.76 2.783c-1.331-2.094-5.651-11.107-7.234-14.77-.794-1.84-3.432-5.527-6.095-4.5-.616.239-1.087.7-1.358 1.336-.896 2.094.547 5.583.609 5.731 2.085 4.967 7.84 18.416 8.477 19.908.097.227.228.51.38.839.36.78.855 1.851 1.18 2.809.43 1.267.338 1.687.311 1.767a1.182 1.182 0 0 1-.273.15c-1.798.694-5.393-2.672-6.758-4.314-1.246-1.5-3.879-2.289-5.524-1.654-.658.253-1.126.729-1.315 1.337-.273.877.026 1.959.888 3.214l.051.079c1.246 1.947 4.722 6.912 10.085 10.944 3.438 2.584 7.03 4.31 10.677 5.126 4.525 1.013 9.148.628 13.74-1.144 4.927-1.9 7.733-5.59 8.34-10.964.601-5.295-1.187-10.9-2.305-13.771-1.519-3.894-4.28-6.11-8.206-6.586z' fill='#C9CDF5'/>
    <path d='M31.5 9c-1.974 0-2.5 2.2-2.5 3.5 0 1.3.526 3.5 2.5 3.5s2.5-2.2 2.5-3.5c0-1.3-.526-3.5-2.5-3.5zM50 14h2l-1.015-3z' fill='#8B9FE1'/>
    <g>
      <mask id='b' fill='#fff'>
        <use xlink:href='#a'/>
      </mask>
      <path d='M21.092 9.476c-.076 0-.151.003-.224.012l-.82.092v7.178h1.232c1.1 0 2.564-.35 2.564-3.368 0-2.689-1.427-3.914-2.752-3.914z' fill='#8B9FE1' mask='url(#b)'/>
      <path d='M79.207.108H12.775C5.719.108 0 5.882 0 13.007c0 7.123 5.719 12.897 12.774 12.897h9.2c-.102-1.116-.034-2.303.406-3.345.479-1.136 1.355-2.001 2.464-2.435a4.534 4.534 0 0 1 1.662-.317c3.629 0 6.247 4.283 6.949 5.933l.07.164h45.683c7.055 0 12.773-5.774 12.773-12.897 0-7.125-5.718-12.899-12.774-12.899zM21.314 18.517c-.306 0-.609-.024-.901-.048-.411-.032-.934-.058-1.256-.02l-1.43.167a.687.687 0 0 1-.755-.577l-.06-.377a.695.695 0 0 1 .61-.798l.686-.067V9.545l-.748-.163a.69.69 0 0 1-.54-.705l.01-.24a.69.69 0 0 1 .793-.654l.227.038c.32.054.65.11.964.11.276 0 .55-.04.865-.088.344-.053.732-.11 1.157-.11 2.96 0 4.797 2.09 4.797 5.458 0 4.634-2.77 5.326-4.42 5.326zm10.056.199c-3.009 0-4.355-2.809-4.355-5.591 0-2.784 1.346-5.592 4.355-5.592 3.008 0 4.354 2.808 4.354 5.592 0 2.782-1.346 5.59-4.354 5.59zM45.44 9.49h-.35v8.334a.687.687 0 0 1-.685.692h-.62a.684.684 0 0 1-.592-.346l-3.821-6.67v5.257h.827c.378 0 .685.31.685.692v.375a.687.687 0 0 1-.685.692H37a.687.687 0 0 1-.684-.692v-.375c0-.382.306-.692.684-.692h.532V9.491H37a.688.688 0 0 1-.684-.69v-.378c0-.381.306-.69.684-.69h1.917c.246 0 .473.132.595.348l3.738 6.609V9.49h-.86a.688.688 0 0 1-.685-.69v-.376c0-.383.307-.692.685-.692h3.05c.378 0 .685.309.685.692V8.8a.688.688 0 0 1-.684.691zm10.676 8.334a.687.687 0 0 1-.684.692H52.66a.687.687 0 0 1-.684-.692v-.375c0-.382.306-.692.684-.692h.548l-.483-1.311h-3.337l-.474 1.311h.57c.377 0 .684.31.684.692v.375a.687.687 0 0 1-.684.692h-2.739a.688.688 0 0 1-.685-.692v-.375c0-.382.306-.692.685-.692h.264l3.378-9.015a.684.684 0 0 1 .636-.447h.003c.282 0 .535.175.638.44l3.5 9.022h.268c.377 0 .684.31.684.692v.375zm9.333-6.453a.688.688 0 0 1-.684.691h-.471a.688.688 0 0 1-.684-.691v-.985c0-.606-.053-.769-.083-.81-.008-.005-.129-.086-.739-.086h-.92v7.266h1.467c.379 0 .685.31.685.693v.375a.688.688 0 0 1-.685.692h-4.776a.688.688 0 0 1-.685-.692v-.375c0-.383.307-.693.685-.693h1.468V9.491h-.92c-.611 0-.732.08-.744.09-.026.037-.078.2-.078.806v.985a.688.688 0 0 1-.684.691h-.471a.688.688 0 0 1-.686-.691V8.423c0-.381.307-.69.686-.69h7.635c.379 0 .684.309.684.69v2.949zm9.629 6.453a.687.687 0 0 1-.684.692h-7.57a.687.687 0 0 1-.684-.692v-.375c0-.382.306-.692.684-.692h.958V9.491h-.958a.688.688 0 0 1-.684-.69v-.378c0-.381.306-.69.684-.69h7.258c.378 0 .684.309.684.69v2.334a.687.687 0 0 1-.684.692h-.472a.687.687 0 0 1-.684-.692v-.154c0-.593-.032-.934-.096-1.014-.017-.015-.15-.098-.84-.098h-2.367v2.307h1.441a.685.685 0 0 1 .673-.564h.471c.379 0 .684.31.684.69v1.671a.687.687 0 0 1-.684.691h-.47a.688.688 0 0 1-.685-.69v-.04h-1.43v3.202h2.662c.953 0 .953 0 .953-1.575v-.04c0-.381.307-.69.685-.69h.47c.38 0 .685.309.685.69v2.682z' fill='#8B9FE1' mask='url(#b)'/>
    </g>
  </g>
</svg>
